packages/tokens/icons/abTesting/size16Px.svg

<svg viewBox="0 0 16 16" fill="none" xmlns="http://www.w3.org/2000/svg" width="1em" height="1em"><path d="M7.99988 11.5L7.99988 14" stroke="currentColor"/><path d="M5.5 14.5H10.5" stroke="currentColor" stroke-linecap="round"/><path d="M2.5 3.5L13.5 3.5C14.0523 3.5 14.5 3.94772 14.5 4.5L14.5 10.5C14.5 11.0523 14.0523 11.5 13.5 11.5L2.5 11.5C1.94772 11.5 1.5 11.0523 1.5 10.5L1.5 4.5C1.5 3.94772 1.94772 3.5 2.5 3.5Z" stroke="currentColor" stroke-linecap="round"/><path d="M4.49061 5.545H5.12061L6.47561 9H5.76561L5.46561 8.205H4.11061L3.81061 9H3.13561L4.49061 5.545ZM5.30561 7.685L4.79061 6.29L4.27061 7.685L5.30561 7.685ZM8.9908 5.04L9.3858 5.215L7.3108 9.48L6.9208 9.3L8.9908 5.04ZM10.1721 9V5.55H11.2771C11.4237 5.55 11.5687 5.56167 11.7121 5.585C11.8587 5.60833 11.9887 5.65167 12.1021 5.715C12.2187 5.77833 12.3121 5.86667 12.3821 5.98C12.4521 6.09333 12.4871 6.24 12.4871 6.42C12.4871 6.52333 12.4687 6.61667 12.4321 6.7C12.3987 6.78333 12.3554 6.85667 12.3021 6.92C12.2521 6.98333 12.1954 7.03667 12.1321 7.08C12.0687 7.12 12.0087 7.15167 11.9521 7.175V7.185C12.1754 7.235 12.3537 7.33167 12.4871 7.475C12.6237 7.615 12.6921 7.795 12.6921 8.015C12.6921 8.205 12.6521 8.36667 12.5721 8.5C12.4954 8.63 12.3987 8.73333 12.2821 8.81C12.1754 8.87667 12.0487 8.925 11.9021 8.955C11.7554 8.985 11.5987 9 11.4321 9H10.1721ZM11.3821 8.49C11.4721 8.49 11.5554 8.48333 11.6321 8.47C11.7121 8.45667 11.7804 8.43167 11.8371 8.395C11.8971 8.35833 11.9437 8.30667 11.9771 8.24C12.0137 8.17333 12.0321 8.08833 12.0321 7.985C12.0321 7.88833 12.0121 7.80833 11.9721 7.745C11.9354 7.67833 11.8837 7.62167 11.8171 7.575C11.7504 7.52833 11.6804 7.49833 11.6071 7.485C11.5371 7.47167 11.4521 7.465 11.3521 7.465H10.8221V8.49H11.3821ZM10.8221 6.06V6.99H11.2271C11.3137 6.99 11.3921 6.98333 11.4621 6.97C11.5354 6.95667 11.5987 6.93167 11.6521 6.895C11.7087 6.85833 11.7521 6.80833 11.7821 6.745C11.8121 6.68167 11.8271 6.60167 11.8271 6.505C11.8271 6.355 11.7737 6.24333 11.6671 6.17C11.5637 6.09667 11.4271 6.06 11.2571 6.06H10.8221Z" fill="currentColor"/></svg>

<svg xmlns="http://www.w3.org/2000/svg" fill="none" viewBox="0 0 16 16" width="1em" height="1em"><path stroke="currentColor" d="M8 11.5V14"/><path stroke="currentColor" stroke-linecap="round" d="M5.5 14.5h5m-8-11h11a1 1 0 0 1 1 1v6a1 1 0 0 1-1 1h-11a1 1 0 0 1-1-1v-6a1 1 0 0 1 1-1Z"/><path fill="currentColor" d="M4.49 5.545h.63L6.477 9h-.71l-.3-.795H4.11L3.81 9h-.675L4.49 5.545Zm.816 2.14L4.79 6.29l-.52 1.395h1.035ZM8.99 5.04l.395.175L7.31 9.48l-.39-.18 2.07-4.26ZM10.172 9V5.55h1.105c.147 0 .292.012.435.035.147.023.277.067.39.13.117.063.21.152.28.265.07.113.105.26.105.44a.802.802 0 0 1-.185.5.772.772 0 0 1-.17.16c-.063.04-.123.072-.18.095v.01c.223.05.402.147.535.29a.74.74 0 0 1 .205.54.926.926 0 0 1-.41.795 1.144 1.144 0 0 1-.38.145c-.147.03-.303.045-.47.045h-1.26Zm1.21-.51c.09 0 .173-.007.25-.02a.535.535 0 0 0 .205-.075.372.372 0 0 0 .14-.155.526.526 0 0 0 .055-.255.442.442 0 0 0-.06-.24.53.53 0 0 0-.365-.26 1.388 1.388 0 0 0-.255-.02h-.53V8.49h.56Zm-.56-2.43v.93h.405c.087 0 .165-.007.235-.02a.484.484 0 0 0 .19-.075.357.357 0 0 0 .13-.15.56.56 0 0 0 .045-.24c0-.15-.053-.262-.16-.335a.694.694 0 0 0-.41-.11h-.435Z"/></svg>
